Papirus/64x64/apps/forza-horizon-5.svg

<svg width="64" height="64" version="1.1" xmlns="http://www.w3.org/2000/svg">
 <rect x="0" y="5" width="56" height="56" ry="8" style="opacity:.2"/>
 <rect x="0" y="4" width="56" height="56" ry="8" style="fill:#e3536d"/>
 <path d="m29.000766 23c-5.522818 0-7.71464 0.972212-10 6h27c3.540124 0 7.38376-3.266274 8-6zm-19 8 16.332032 3.800782-2.332032 4.699218 5-1.5 3-7zm24 0-3 7 4.5-1 2.5-6zm6 0-2.5 5.550782 4.101562-0.75c1.288324-0.257666 1.56367-0.958092 2-1.800782l1.847656-3zm-23.472656 2.949218-4.527344 11.050782 9.199218-4 2.441406-4.890624z" style="opacity:.2"/>
 <path d="m29.000766 22c-5.522818 0-7.71464 0.972212-10.000001 6h27.000001c3.540124 0 7.38376-3.266274 8-6zm-19.000001 8 16.332033 3.800782-2.332032 4.699218 5-1.5 3-7zm24.000001 0-3 7 4.5-1 2.5-6zm6 0-2.5 5.550782 4.101562-0.75c1.288324-0.257666 1.56367-0.958092 2-1.800782l1.847656-3zm-23.472657 2.949218-4.527344 11.050782 9.199219-4 2.441406-4.890624z" style="fill:#2f2f2f"/>
 <path d="m12 4.0000002c-4.431996 0-8 3.5680044-8 7.9999998v1c0-4.4319955 3.568004-7.9999999 8-7.9999999h39.999999c4.431996 0 8 3.5680044 8 7.9999999v-1c0-4.4319954-3.568004-7.9999998-8-7.9999998z" style="fill:#ffffff;opacity:.1"/>
</svg>

<svg xmlns="http://www.w3.org/2000/svg" width="64" height="64" version="1.1">
 <rect style="opacity:0.2" width="56" height="56" x="4" y="5" ry="8"/>
 <rect style="fill:#e3536d" width="56" height="56" x="4" y="4" ry="8"/>
 <path style="fill:#ffffff;opacity:0.1" d="m12 4.0000002c-4.431996 0-8 3.5680044-8 7.9999998v1c0-4.4319955 3.568004-7.9999999 8-7.9999999h39.999999c4.431996 0 8 3.5680044 8 7.9999999v-1c0-4.4319954-3.568004-7.9999998-8-7.9999998z"/>
 <path style="opacity:0.2" d="M 29,23 C 23.48,23 21.29,23.97 19,29 H 46 C 49.54,29 53.38,25.73 54,23 Z M 10,31 26.33,34.8 24,39.5 29,38 32,31 Z M 34,31 31,38 35.5,37 38,31 Z M 40,31 37.5,36.55 41.6,35.8 C 42.89,35.54 43.17,34.84 43.6,34 L 45.45,31 Z M 16.53,33.95 12,45 21.2,41 23.64,36.11 Z"/>
 <path style="fill:#2f2f2f" d="M 29,22 C 23.48,22 21.29,22.97 19,28 H 46 C 49.54,28 53.38,24.73 54,22 Z M 10,30 26.33,33.8 24,38.5 29,37 32,30 Z M 34,30 31,37 35.5,36 38,30 Z M 40,30 37.5,35.55 41.6,34.8 C 42.89,34.54 43.17,33.84 43.6,33 L 45.45,30 Z M 16.53,32.95 12,44 21.2,40 23.64,35.11 Z"/>
</svg>
